X: 15118
T: Ghost, The
R: three-two
M: 3/2
K: Fmajor
G,3 D D/E/D C3 D F2|G,3 G, G2 E3 DCD|G,3 D D/E/D C3 D F2|G3 D F2 E3 D CD|
G,3 D D/E/D C3 D F2|G,3 G, G2 E3 D C2|D3 B, G,2 C3 F E2|D3 C G,2 C6:|
D3 B A2 G6|c3 G B2 A3 G F2|G3 _E C2 F3 B A2|G3 _E C2 F6|
D3 B A2 G6|c3 G B2 A3 G F2|G3 _E C2 F3 B A2|G3 _E C D3 C D2||

